X: 127
T: Polska efter Lapp-Nils
R: Polska
N: Gammelvnster
S: Efter Lapp-Nils
O: Jmtland
Z: Hkan Lidn, 2008-09-27
M: 3/4
L: 1/8
K: G
d>c B>b g>e | d>c B>A (3GAB | A>B (3cdc (3BAG | A>F (3GAc B2 | d>c B>b g>e | 
d>c B>A (3GAB | A>B (3cdc (3BAG | F2 G4 :: g>f g>a b>g | (3fef (3geg f>d |
g>f g>a b>g | f2 d4 | g>f g>a b>g | (3fef (3gfe d>B | (3GAB (3cdc (3BAG | F2 G4 :|
